16x16/apps/re-volt.svg

<svg xmlns="http://www.w3.org/2000/svg" width="16" height="16" version="1.1">
 <path style="fill:#4f4f4f" d="M 6.7870688,0.0052801 C 6.4548884,0.05567742 6.2415616,0.45281445 6.308758,0.89572196 L 6.919488,4.9211881 4.8808036,1.3967053 C 4.656486,1.0089373 4.2416929,0.83202488 3.9508665,1.0002635 3.6600417,1.1685016 3.6064853,1.6163135 3.8308041,2.0040812 L 6.0199416,5.7884797 2.4996337,3.1956378 C 2.1389357,2.9299694 1.6882543,2.9338774 1.4890037,3.2044018 1.2897527,3.4749254 1.4196949,3.906485 1.7803933,4.1721526 L 5.0597196,6.5875041 1.125606,5.5366449 C 0.69279602,5.4210685 0.27431775,5.5891629 0.1876354,5.9137701 0.100953,6.2383777 0.37930399,6.5924089 0.81211394,6.7079853 L 5.0367084,7.8361745 0.7137821,8.492034 C 0.27087459,8.5592304 -0.04511736,8.8807504 0.00527992,9.2129312 0.0556772,9.5451116 0.45281427,9.7584384 0.89572178,9.691242 L 4.9211884,9.080512 1.3967051,11.119196 c -0.387768,0.224318 -0.56468036,0.639111 -0.3964418,0.929938 0.1682383,0.290825 0.6160499,0.344381 1.0038177,0.120062 L 5.7884796,9.9800584 3.1956377,13.500366 c -0.2656684,0.360698 -0.26176,0.81138 0.00876,1.01063 0.2705228,0.199251 0.7020832,0.06931 0.9677508,-0.291389 L 6.5875024,10.94028 5.5366432,14.874394 c -0.1155764,0.432809 0.052518,0.851288 0.3771256,0.93797 0.3246072,0.08668 0.6786384,-0.191668 0.7942152,-0.624478 l 1.1281912,-4.224594 0.6558591,4.322926 c 0.067196,0.442907 0.3887168,0.758899 0.7208972,0.708502 0.3321808,-0.0504 0.5455072,-0.447535 0.4783108,-0.890442 l -0.6107296,-4.025466 2.0386843,3.524483 c 0.224318,0.387768 0.63911,0.56468 0.929937,0.396442 0.290825,-0.168239 0.344381,-0.616051 0.120062,-1.003818 L 9.9800587,10.21152 13.500367,12.804362 c 0.360698,0.26567 0.811378,0.26176 1.01063,-0.0088 0.19925,-0.270523 0.06931,-0.702083 -0.29139,-0.96775 l -3.279326,-2.4153504 3.934113,1.0508594 c 0.43281,0.115576 0.851289,-0.05252 0.937971,-0.377126 C 15.899045,9.761588 15.620696,9.4075568 15.187887,9.29198 L 10.963292,8.1638253 15.286218,7.5079661 C 15.729125,7.4407697 16.045117,7.1192493 15.99472,6.7870689 15.944323,6.4548881 15.547186,6.2415617 15.104278,6.3087581 l -4.025466,0.6107296 3.524483,-2.038684 C 14.991063,4.6564857 15.167975,4.2416926 14.999737,3.9508666 14.831499,3.6600406 14.383686,3.6064854 13.995919,3.8308042 L 10.21152,6.0199417 12.804362,2.4996334 c 0.265669,-0.3606976 0.26176,-0.8113788 -0.0088,-1.0106295 -0.270524,-0.199251 -0.702083,-0.069309 -0.967751,0.2913896 L 9.4124979,5.0597193 10.463357,1.1256062 C 10.578933,0.6927962 10.410839,0.27431793 10.086232,0.18763558 9.7616243,0.10095318 9.4075931,0.37930417 9.2920167,0.81211412 L 8.1638256,5.0367081 7.507966,0.71378228 C 7.4407696,0.27087477 7.1192496,-0.04511718 6.7870688,0.0052801 Z"/>
 <circle style="fill:#4f4f4f" cx="8" cy="8" r="7"/>
 <circle style="opacity:0.3" cx="8" cy="8" r="5"/>
 <circle style="fill:#797979" cx="8" cy="8" r="4"/>
 <path style="fill:#ff8602" d="M 8.8749999,2 8.3470508,7 H 11.5 L 7.125,14 7.7740855,9 H 4.5 Z"/>
</svg>

<svg xmlns="http://www.w3.org/2000/svg" width="16" height="16"><path style="fill:#4f4f4f" d="M6.787.005c-.332.05-.545.448-.478.89l.61 4.026-2.038-3.524C4.656 1.009 4.24.832 3.95 1c-.291.169-.345.616-.12 1.004L6.02 5.788 2.5 3.196c-.361-.266-.812-.262-1.011.008-.2.27-.07.702.291.968l3.28 2.416-3.934-1.051c-.433-.116-.852.052-.938.377-.087.324.191.678.624.794l4.225 1.128-4.323.656c-.443.067-.76.389-.709.72.05.333.448.546.89.48l4.026-.611-3.524 2.038c-.388.225-.565.64-.397.93.169.291.616.345 1.004.12L5.788 9.98 3.196 13.5c-.266.361-.262.812.008 1.011.27.2.702.07.968-.291l2.416-3.28-1.051 3.934c-.116.433.052.852.377.938.324.087.678-.191.794-.624l1.128-4.225.656 4.323c.067.443.389.76.72.709.333-.05.546-.448.48-.89l-.611-4.026 2.038 3.524c.225.388.64.565.93.397.291-.169.345-.616.12-1.004L9.98 10.212l3.52 2.592c.361.266.812.262 1.011-.008.2-.271.07-.703-.291-.968l-3.28-2.416 3.934 1.051c.433.116.852-.052.938-.377.087-.324-.191-.678-.624-.794l-4.225-1.128 4.323-.656c.443-.067.76-.389.709-.72-.05-.333-.448-.546-.89-.48l-4.026.611 3.524-2.038c.388-.225.565-.64.397-.93-.169-.291-.616-.345-1.004-.12L10.212 6.02l2.592-3.52c.266-.361.262-.812-.008-1.011-.271-.2-.703-.07-.968.291L9.412 5.06l1.051-3.934c.116-.433-.052-.852-.377-.938-.324-.087-.678.191-.794.624L8.164 5.037 7.508.714c-.067-.443-.389-.76-.72-.709z"/><circle style="fill:#4f4f4f" cx="8" cy="8" r="7"/><circle style="opacity:.3" cx="8" cy="8" r="5"/><circle style="fill:#797979" cx="8" cy="8" r="4"/><path style="fill:#ff8602" d="m8.875 2-.528 5H11.5l-4.375 7 .65-5H4.5z"/></svg>
